img/user.svg

<svg width="14" height="16" viewBox="0 0 14 16" fill="none" xmlns="http://www.w3.org/2000/svg">
<path d="M7 8C9.1875 8 11 6.21875 11 4C11 1.8125 9.1875 0 7 0C4.78125 0 3 1.8125 3 4C3 6.21875 4.78125 8 7 8ZM9.78125 9H9.25C8.5625 9.34375 7.8125 9.5 7 9.5C6.1875 9.5 5.40625 9.34375 4.71875 9H4.1875C1.875 9 0 10.9062 0 13.2188V14.5C0 15.3438 0.65625 16 1.5 16H12.5C13.3125 16 14 15.3438 14 14.5V13.2188C14 10.9062 12.0938 9 9.78125 9Z" fill="white"/>
</svg>

<svg width="14" height="16" fill="none" xmlns="http://www.w3.org/2000/svg"><path d="M7 8c2.188 0 4-1.781 4-4 0-2.188-1.813-4-4-4-2.219 0-4 1.813-4 4 0 2.219 1.781 4 4 4zm2.781 1H9.25c-.688.344-1.438.5-2.25.5-.813 0-1.594-.156-2.281-.5h-.532C1.876 9 0 10.906 0 13.219V14.5c0 .844.656 1.5 1.5 1.5h11a1.5 1.5 0 001.5-1.5v-1.281C14 10.906 12.094 9 9.781 9z" fill="#fff"/></svg>
